X: 57
T:Molloy's Reel
T:Molloy's Favourite
M:C|
L:1/8
C:Paddy Killoran
R:reel
Z:
K:D
d2Ad fdAF|GFEF GABc|d2Ad fdAF|GBAG FDD2|
dcde fdAF|GFEF GABc|d2Ad fdAF|GBAG FDD2||
g3f gbag|fgaf gfef|g3f gbag|f2eg fddc|
dfaf gbag|fgaf gfeg|fdec dcBA|^GABc defe||

